svg/OSM-icons/amenity #7bffff °373737 !label=enamenities,deEinrichtungen/12076;amenity=hunting_stand;!height=;!shelter=;!hide=;!lock=;!label=enhunting stand,deHoch- stand.svg

<svg xmlns="http://www.w3.org/2000/svg" viewBox="0 0 580 580" enable-background="new 0 0 580 580"><path fill="#111" stroke="#eee" stroke-width="3.408" d="m66.28 1.768c-41.34 0-64.57 21.371-64.57 65.04v450.12c0 40.844 20.895 62.23 62.19 62.23h452.02c41.31 0 62.23-20.315 62.23-62.23v-450.12c0-42.601-20.923-65.04-63.52-65.04-.004 0-448.5-.143-448.35 0z"/><path fill="#fff" d="m256.12 35.824v258.68l-4.706-1.105-129.75 260.79 11.617 5.779 117.45-236.08v232.38h12.976v-253.49h181.65v253.49h12.975v-253.5-6.487-226.28l-202.22-34.19m132.98 126.32h-94.21v-53.681h94.21v53.681"/></svg>

<?xml version="1.0" encoding="utf-8"?>
<!-- Generator: Adobe Illustrator 15.0.0, SVG Export Plug-In . SVG Version: 6.00 Build 0)  -->
<!DOCTYPE svg PUBLIC "-//W3C//DTD SVG 1.1//EN" "http://www.w3.org/Graphics/SVG/1.1/DTD/svg11.dtd">
<svg version="1.1" xmlns="http://www.w3.org/2000/svg" xmlns:xlink="http://www.w3.org/1999/xlink" x="0px" y="0px" width="580px"
	 height="580px" viewBox="0 0 580 580" enable-background="new 0 0 580 580" xml:space="preserve">
<g id="Layer_2">
	<g id="g1327">
		<path id="path1329" fill="#111111" stroke="#EEEEEE" stroke-width="3.408" d="M66.275,1.768
			c-41.335,0-64.571,21.371-64.571,65.036v450.123c0,40.844,20.895,62.229,62.192,62.229H515.92
			c41.307,0,62.229-20.315,62.229-62.229V66.804c0-42.601-20.923-65.036-63.521-65.036C514.624,1.768,66.133,1.625,66.275,1.768z"/>
	</g>
</g>
<g id="Layer_4">
	<path fill="#FFFFFF" d="M256.12,35.824v258.679l-4.706-1.105L121.663,554.192l11.617,5.779l117.454-236.08v232.38h12.976V302.776
		h181.652v253.495h12.975V302.774v-6.487V70.011L256.12,35.824z M389.103,162.139h-94.209v-53.681h94.209V162.139z"/>
</g>
</svg>
